X:1
T:Partita in A minor, BWV 1013
T:Partita in A minor, BWV 1013 (Solo pour une flûte traversière) 
T:Johann Sebastian Bach
T:I.Allemande
C:Johann Sebastian Bach
L:1/8
Q:1/4=84
M:4/4
K:C
V:1 treble nm="Флейта" snm="Фл."
V:1
 z/ e/a/^g/ a/c'/a/e/ A/e/a/g/ a/c'/a/e/ | A/c/e/f/ ^G/f/e/d/ c/e/^g/a/ E/d/c/B/ | %2
 A/c/e/f/ ^G/f/e/d/ c/e/^g/a/ E/d/c/B/ | A/c/^G/A/ F/d/G/A/ E/c/G/A/ D/c/B/A/ | %4
 ^G/E/G/B/ e/^g/b/d'/ f/d'/b/g/ e/d/c/B/ | c/A/c/e/ a/c'/e'/f/ g/_b/g/e/ c/_B/A/G/ | %6
 A/F/A/c/ d/f/a/c/ B/G/B/d/ e/g/b/d/ | c/A/c/e/ f/a/c'/e/ d/B/d/^f/ g/b/d'/=f/ | %8
 e/g/c'/b/ c'/e'/c'/g/ c/g/c'/b/ c'/e'/c'/g/ | c/g/_b/a/ b/e'/b/g/ c/g/b/a/ b/e'/b/g/ | %10
 ^c/g/_b/a/ b/e'/b/g/ c/g/e/c/ A/G/F/E/ | D/g/f/e/ f/a/f/d/ B/^G/B/d/ e/d/c/B/ | %12
 c/e/a/^g/ a/c'/a/^f/ ^d/B/d/f/ b/a/=g/f/ | g/^f/e/g/ A/e/g/c'/ f/e/d/f/ G/d/f/b/ | %14
 e/d/c/e/ ^F/e/^f/a/ ^d/B/c/A/ ^D/c/B/A/ | G/e/f/d/ ^G/f/e/d/ A/^f/g/e/ ^A/g/f/e/ | %16
 ^d/b/^g/=d/ ^c/a/^f/=c/ B/=g/e/_B/ A/f/^d/A/ | G/e/c/A/ ^F/c/A/F/ ^D/F/A/c/ B/a/g/^f/ |1 %18
 g/^f/4e/4b/c'/ f>e !fermata!e4 :|2 g/^f/4e/4b/c'/ f>e e/B/c/A/ B/G/A/B/ |: %20
 E/B/e/^d/ e/g/e/B/ ^F/B/e/d/ e/g/e/B/ | E/G/B/c/ ^D/c/B/A/ G/B/^d/e/ B/A/G/^F/ | %22
 E/G/B/c/ ^D/c/B/A/ G/B/^d/e/ B/a/g/^f/ | e/g/^d/e/ b/^g/=d/e/ c/a/^d/e/ ^G/f/e/=d/ | %24
 A/c/^G/A/ e/^c/=G/A/ F/d/^G/A/ c/_b/a/g/ | f/A/d/^c/ d/f/d/A/ D/A/d/c/ d/f/d/A/ | %26
 D/A/c/B/ c/^f/c/A/ D/A/c/B/ c/f/c/A/ | D/c/^f/e/ d/c/B/A/ E/d/c/B/ ^F/e/d/c/ | %28
 B/d/g/^f/ g/b/g/d/ G/d/g/f/ g/b/g/d/ | G/d/f/e/ f/b/f/d/ G/d/f/e/ f/b/f/d/ | %30
 G/f/b/a/ g/f/e/d/ A/g/f/e/ B/a/g/f/ | e/g/e/c/ _B/A/B/G/ A/=B/^c/d/ e/f/g/e/ | %32
 f/a/f/d/ c/B/c/A/ B/^c/^d/e/ ^f/^g/a/f/ | ^g/b/g/e/ d/c/d/B/ c/e/g/a/ ^G/f/e/d/ | %34
 A/c/e/f/ E/d/c/_B/ F/A/^c/d/ A/g/f/e/ | d/f/^c/d/ a/^f/=c/d/ B/^g/e/=f/ a/f/^c/d/ | %36
 ^G/f/^c/d/ b/a/^g/^f/ e/d/=c/B/ A/G/^F/E/ | d/B/c/e/ A/B/c/d/ e/^f/^g/a/ b/g/a/c'/ | %38
 ^d/^f/c'/b/ e/^g/c'/b/ f/a/c'/b/ B/c'/b/a/ | ^g/e/f/e/ a/e/f/e/ b/e/f/e/ d/f/e/d/ | %40
 c/A/c/e/ a/g/f/e/ f/a/f/d/ d'/c'/b/a/ | ^g/e'/^c'/=g/ ^f/d'/b/=f/ e/=c'/a/_e/ d/_b/^g/d/ | %42
 c/a/f/d/ B/f/d/B/ ^G/B/d/f/ e/d/c/B/ | c/e/a/c/ B/A/E/^g/ a/A/G/E/ F/a/E/=g/ | %44
 D/f/e/^c/ d/_b/=c/a/ ^g/e/d/B/ c/e'/B/d'/ | c/c'/d/b/ e/a/b/^g/ a/E/A/c/ e/A/c/e/ | %46
 a/e/a/c'/ e'/a/c'/e'/ !fermata!a'4 :| %47

